_inc/systems/logos/3ds.svg

<?xml version="1.0" encoding="utf-8"?>
<svg viewBox="0 0 600 73" xmlns="http://www.w3.org/2000/svg" xmlns:bx="https://boxy-svg.com">
  <path d="M 324.01 65.594 C 324.01 66.337 323.267 67.079 322.525 67.079 L 295.545 67.079 C 294.802 67.079 294.059 66.337 294.059 65.594 L 294.059 46.04 C 294.059 45.297 294.802 44.554 295.545 44.554 L 322.525 44.554 C 323.267 44.554 324.01 45.297 324.01 46.04 L 324.01 65.594 Z M 322.772 38.614 L 295.297 38.616 C 291.337 38.616 288.119 41.834 288.119 45.795 L 288.119 65.349 C 288.119 69.309 291.337 72.527 295.297 72.527 L 322.772 72.527 C 326.733 72.527 329.951 69.309 329.951 65.349 L 329.951 45.795 C 329.951 41.834 326.733 38.616 322.772 38.616" style="fill: rgb(255, 255, 255);" bx:origin="-6.888 -1.139"/>
  <path d="M 6.436 9.406 L 6.436 34.653 L 0 34.653 L 0 0.495 L 5.446 0.495 L 31.188 25.495 L 31.188 0.495 L 36.139 0.495 L 37.376 0.495 L 37.376 34.653 L 32.426 34.653 L 6.436 9.406 Z" style="fill: rgb(255, 255, 255);" bx:origin="0 -0.015"/>
  <path d="M 70.05 9.406 L 70.05 34.653 L 63.614 34.653 L 63.614 0.495 L 69.059 0.495 L 94.802 25.495 L 94.802 0.495 L 99.752 0.495 L 100.99 0.495 L 100.99 34.653 L 96.04 34.653 L 70.05 9.406 Z" style="fill: rgb(255, 255, 255);" bx:origin="-1.702 -0.015"/>
  <path d="M 201.485 9.406 L 201.485 34.653 L 195.05 34.653 L 195.05 0.495 L 200.495 0.495 L 226.238 25.495 L 226.238 0.495 L 231.188 0.495 L 232.426 0.495 L 232.426 34.653 L 227.475 34.653 L 201.485 9.406 Z" style="fill: rgb(255, 255, 255);" bx:origin="-5.219 -0.015"/>
  <path d="M 52.475 0.495 L 53.713 0.495 L 53.713 34.653 L 47.277 34.653 L 47.277 0.495 L 52.475 0.495 Z" style="fill: rgb(255, 255, 255);" bx:origin="-7.346 -0.015"/>
  <path d="M 144.059 0.495 L 145.297 0.495 L 145.297 6.436 L 129.951 6.436 L 129.951 34.653 L 123.267 34.653 L 123.267 6.436 L 107.921 6.436 L 107.921 0.495 L 143.812 0.495 Z" style="fill: rgb(255, 255, 255);" bx:origin="-2.887 -0.015"/>
  <path d="M 184.406 0.495 L 185.644 0.495 L 185.644 6.436 L 158.663 6.436 L 158.663 14.109 L 179.703 14.109 L 179.703 20.05 L 158.663 20.05 L 158.663 28.96 L 185.644 28.96 L 185.644 34.901 L 152.228 34.901 L 152.228 0.743 L 184.406 0.743 Z" style="fill: rgb(255, 255, 255);" bx:origin="-4.556 -0.015"/>
  <path d="M 267.574 28.713 L 248.267 28.713 L 248.267 6.436 L 248.515 6.436 L 267.822 6.436 C 274.01 6.436 275.99 12.376 275.99 17.574 C 275.99 22.772 273.762 28.713 267.822 28.713 M 278.218 5.446 C 275.743 2.228 272.03 0.495 267.574 0.495 L 242.327 0.495 L 242.327 34.653 L 267.574 34.653 C 272.03 34.653 275.743 32.921 278.218 29.703 C 280.446 26.733 281.683 22.525 281.683 17.574 C 281.683 12.624 280.446 8.416 278.218 5.446" style="fill: rgb(255, 255, 255);" bx:origin="-6.157 -0.015"/>
  <path d="M 324.01 27.475 C 324.01 28.218 323.267 28.96 322.525 28.96 L 295.545 28.96 C 294.802 28.96 294.059 28.218 294.059 27.475 L 294.059 7.921 C 294.059 7.178 294.802 6.436 295.545 6.436 L 322.525 6.436 C 323.267 6.436 324.01 7.178 324.01 7.921 L 324.01 27.475 Z M 322.772 0.495 L 295.297 0.495 C 291.337 0.495 288.119 3.713 288.119 7.673 L 288.119 27.475 C 288.119 31.436 291.337 34.653 295.297 34.653 L 322.772 34.653 C 326.733 34.653 329.951 31.436 329.951 27.475 L 329.951 7.673 C 329.951 3.713 326.733 0.495 322.772 0.495" style="fill: rgb(255, 255, 255);" bx:origin="-6.888 -0.015"/>
  <path d="M 528.218 58.663 C 534.654 61.139 548.515 63.366 559.406 63.366 C 571.287 63.366 576.238 59.406 576.238 54.208 C 576.238 49.752 571.782 47.03 558.663 42.079 C 541.089 35.644 528.465 30.446 528.465 19.059 C 528.465 7.178 543.812 0.248 567.327 0.248 C 579.951 0.248 584.158 0.99 592.327 2.475 L 592.327 13.861 C 584.406 12.376 577.475 9.901 566.584 9.901 C 554.951 9.901 550 13.614 550 17.327 C 550 22.772 557.673 25.495 571.04 30.198 C 589.604 36.881 600 42.079 600 53.218 C 600 64.851 587.129 73.02 557.673 73.02 C 545.792 73.02 537.376 72.277 528.218 70.792 L 528.218 58.663 Z" style="fill: rgb(255, 255, 255);" bx:origin="-7.359 -0.004"/>
  <path d="M 466.089 10.149 L 452.228 10.149 L 452.228 62.871 L 466.089 62.871 C 487.376 62.871 500.99 53.713 500.99 36.634 C 500.99 19.554 487.624 10.149 466.089 10.149 M 503.465 67.822 C 496.535 71.04 483.663 73.02 472.277 73.02 L 428.713 73.02 L 428.713 0.495 L 472.277 0.495 C 483.663 0.495 496.782 2.475 503.713 5.693 C 520.545 13.366 525.99 25.248 525.99 36.881 C 525.99 48.267 520.545 60.396 503.713 68.069" style="fill: rgb(255, 255, 255);" bx:origin="-4.407 -0.007"/>
  <path d="M 398.02 33.168 C 398.02 33.168 418.317 29.95 418.317 17.327 C 418.317 4.95 396.782 0 373.762 0 C 352.97 0 339.356 2.475 339.356 2.475 L 339.356 13.614 C 348.762 11.386 357.673 9.406 370.05 9.406 C 383.168 9.406 393.317 13.366 393.317 18.812 C 393.317 25.495 383.416 29.455 361.881 29.455 L 351.98 29.455 L 351.98 39.604 L 361.139 39.604 C 383.663 39.604 396.535 43.069 396.535 51.238 C 396.535 58.663 385.149 63.119 370.792 63.119 C 358.416 63.119 347.03 60.396 337.624 57.921 L 337.624 70.05 C 342.079 70.792 353.96 73.267 375.743 73.267 C 400 73.267 421.287 65.347 421.287 51.733 C 421.287 40.099 406.683 33.416 398.02 33.416" style="fill: rgb(255, 255, 255);" bx:origin="-4.036 0"/>
</svg>

<svg xmlns="http://www.w3.org/2000/svg" viewBox="0 0 600 73"><path d="M324.01 65.6a1.6 1.6 0 0 1-1.49 1.48h-26.97a1.6 1.6 0 0 1-1.5-1.49V46.04c0-.74.75-1.49 1.5-1.49h26.97c.75 0 1.49.75 1.49 1.49zm-1.24-26.99H295.3a7.2 7.2 0 0 0-7.18 7.19v19.55a7.2 7.2 0 0 0 7.18 7.18h27.47a7.2 7.2 0 0 0 7.18-7.18V45.8a7.2 7.2 0 0 0-7.18-7.18M6.44 9.4v25.25H0V.5h5.45l25.74 25V.5h6.19v34.15h-4.95zm63.61 0v25.25h-6.44V.5h5.45l25.74 25V.5h6.2v34.15h-4.95zm131.44 0v25.25h-6.44V.5h5.44l25.75 25V.5h6.19v34.15h-4.96zM52.48.5h1.23v34.15h-6.43V.5zm91.58 0h1.24v5.94h-15.35v28.21h-6.68V6.44h-15.35V.5h35.9Zm40.34 0h1.24v5.94h-26.98v7.67h21.04v5.94h-21.04v8.91h26.98v5.94h-33.41V.74h32.18Zm83.17 28.21h-19.3V6.44h19.55c6.19 0 8.17 5.94 8.17 11.13s-2.23 11.14-8.17 11.14m10.4-23.26C275.74 2.23 272.03.5 267.57.5h-25.24v34.15h25.24c4.46 0 8.17-1.73 10.65-4.95 2.23-2.97 3.46-7.18 3.46-12.13s-1.23-9.15-3.46-12.12m45.79 22.03a1.6 1.6 0 0 1-1.49 1.48h-26.97a1.6 1.6 0 0 1-1.5-1.48V7.92c0-.74.75-1.48 1.5-1.48h26.97c.75 0 1.49.74 1.49 1.48zM322.77.5H295.3a7.2 7.2 0 0 0-7.18 7.17v19.8a7.2 7.2 0 0 0 7.18 7.18h27.47a7.2 7.2 0 0 0 7.18-7.17V7.68A7.2 7.2 0 0 0 322.77.5m205.45 58.16c6.43 2.48 20.3 4.7 31.19 4.7 11.88 0 16.83-3.95 16.83-9.15 0-4.46-4.46-7.18-17.58-12.13-17.57-6.44-30.2-11.63-30.2-23.02 0-11.88 15.35-18.81 38.87-18.81 12.62 0 16.83.74 25 2.23v11.38c-7.92-1.48-14.86-3.96-25.75-3.96-11.63 0-16.58 3.71-16.58 7.43 0 5.44 7.67 8.17 21.04 12.87C589.6 36.88 600 42.08 600 53.22c0 11.63-12.87 19.8-42.33 19.8-11.88 0-20.3-.74-29.45-2.23zm-62.13-48.51h-13.86v52.72h13.86c21.29 0 34.9-9.16 34.9-26.24s-13.37-26.48-34.9-26.48m37.38 57.67c-6.94 3.22-19.8 5.2-31.2 5.2h-43.56V.5h43.57c11.38 0 24.5 1.98 31.43 5.2C520.54 13.36 526 25.24 526 36.87c0 11.39-5.45 23.52-22.28 31.19m-105.7-34.89s20.3-3.22 20.3-15.84C418.32 4.95 396.78 0 373.76 0c-20.79 0-34.4 2.48-34.4 2.48V13.6c9.4-2.22 18.31-4.2 30.69-4.2 13.12 0 23.27 3.96 23.27 9.4 0 6.69-9.9 10.65-31.44 10.65h-9.9V39.6h9.16c22.52 0 35.4 3.47 35.4 11.64 0 7.42-11.4 11.88-25.75 11.88-12.37 0-23.76-2.72-33.17-5.2v12.13c4.46.74 16.34 3.22 38.12 3.22 24.26 0 45.55-7.92 45.55-21.54 0-11.63-14.6-18.31-23.27-18.31" style="fill:#fff"/></svg>
